Sources/FrostedUI/Resources/Icons.xcassets/copy32.imageset/copy-32.svg

<svg width="32" height="32" viewBox="0 0 32 32" fill="none" xmlns="http://www.w3.org/2000/svg" data-fui-icon="true">
  <path
    d="M8.25 11C8.66421 11 9 11.3358 9 11.75C9 12.1642 8.66421 12.5 8.25 12.5H5.33984C4.32376 12.5001 3.50008 13.3238 3.5 14.3398V26.6602C3.50008 27.6762 4.32376 28.4999 5.33984 28.5H16.1602C17.1762 28.4999 17.9999 27.6762 18 26.6602V24.75C18 24.3358 18.3358 24 18.75 24C19.1642 24 19.5 24.3358 19.5 24.75V26.6602C19.4999 28.5047 18.0047 29.9999 16.1602 30H5.33984C3.49534 29.9999 2.00008 28.5047 2 26.6602V14.3398C2.00008 12.4953 3.49534 11.0001 5.33984 11H8.25ZM26.6602 2C28.5047 2.00008 29.9999 3.49534 30 5.33984V17.6602C29.9999 19.5047 28.5047 20.9999 26.6602 21H15.8398C13.9953 20.9999 12.5001 19.5047 12.5 17.6602V5.33984C12.5001 3.49534 13.9953 2.00008 15.8398 2H26.6602ZM15.8398 3.5C14.8238 3.50008 14.0001 4.32376 14 5.33984V17.6602C14.0001 18.6762 14.8238 19.4999 15.8398 19.5H26.6602C27.6762 19.4999 28.4999 18.6762 28.5 17.6602V5.33984C28.4999 4.32376 27.6762 3.50008 26.6602 3.5H15.8398Z"
    fill="currentColor"
  />
</svg>

<svg xmlns="http://www.w3.org/2000/svg" width="32" height="32" fill="none" data-fui-icon="true" viewBox="0 0 32 32"><path fill="currentColor" d="M8.25 11a.75.75 0 0 1 0 1.5H5.34a1.84 1.84 0 0 0-1.84 1.84v12.32a1.84 1.84 0 0 0 1.84 1.84h10.82A1.84 1.84 0 0 0 18 26.66v-1.91a.75.75 0 0 1 1.5 0v1.91A3.34 3.34 0 0 1 16.16 30H5.34A3.34 3.34 0 0 1 2 26.66V14.34A3.34 3.34 0 0 1 5.34 11zm18.41-9A3.34 3.34 0 0 1 30 5.34v12.32A3.34 3.34 0 0 1 26.66 21H15.84a3.34 3.34 0 0 1-3.34-3.34V5.34A3.34 3.34 0 0 1 15.84 2zM15.84 3.5A1.84 1.84 0 0 0 14 5.34v12.32a1.84 1.84 0 0 0 1.84 1.84h10.82a1.84 1.84 0 0 0 1.84-1.84V5.34a1.84 1.84 0 0 0-1.84-1.84z"/></svg>
